X:1
T:Inisheer
M:3/4
L:1/8
R:air
K:G
D2 | B3 ABd | B3 ABd | E3 BAB | D3 BAG | B3 ABd | B3 ABd | G3 BAF | G4 ::
Bd | e3 fed | B3 ABd | gfe dBd | e4 Bd | e3 fed | B3 ABd | G3 BAF | G4 :|
